img/icon-instagram.svg

<svg width="32" height="32" viewBox="0 0 32 32" fill="none" xmlns="http://www.w3.org/2000/svg">
<path d="M21 16C21 17.3261 20.4732 18.5979 19.5355 19.5355C18.5979 20.4732 17.3261 21 16 21C14.6739 21 13.4021 20.4732 12.4645 19.5355C11.5268 18.5979 11 17.3261 11 16C11 15.715 11.03 15.4367 11.0817 15.1667H9.33333V21.8283C9.33333 22.2917 9.70833 22.6667 10.1717 22.6667H21.83C22.0521 22.6662 22.2649 22.5777 22.4217 22.4205C22.5786 22.2634 22.6667 22.0504 22.6667 21.8283V15.1667H20.9183C20.97 15.4367 21 15.715 21 16ZM16 19.3333C16.4378 19.3332 16.8714 19.2469 17.2759 19.0792C17.6803 18.9116 18.0478 18.6659 18.3574 18.3562C18.6669 18.0465 18.9124 17.6789 19.0799 17.2743C19.2473 16.8698 19.3334 16.4362 19.3333 15.9983C19.3332 15.5605 19.2469 15.1269 19.0792 14.7225C18.9116 14.318 18.6659 13.9505 18.3562 13.641C18.0465 13.3314 17.6789 13.0859 17.2743 12.9185C16.8698 12.751 16.4362 12.6649 15.9983 12.665C15.1141 12.6652 14.2661 13.0167 13.641 13.6421C13.0158 14.2676 12.6648 15.1157 12.665 16C12.6652 16.8843 13.0167 17.7322 13.6421 18.3574C14.2676 18.9825 15.1157 19.3336 16 19.3333ZM20 12.5H21.9983C22.1311 12.5 22.2584 12.4474 22.3525 12.3537C22.4465 12.2599 22.4996 12.1328 22.5 12V10.0017C22.5 9.86862 22.4471 9.74102 22.3531 9.64693C22.259 9.55285 22.1314 9.5 21.9983 9.5H20C19.8669 9.5 19.7393 9.55285 19.6453 9.64693C19.5512 9.74102 19.4983 9.86862 19.4983 10.0017V12C19.5 12.275 19.725 12.5 20 12.5ZM16 0C11.7565 0 7.68687 1.68571 4.68629 4.68629C1.68571 7.68687 0 11.7565 0 16C0 20.2435 1.68571 24.3131 4.68629 27.3137C7.68687 30.3143 11.7565 32 16 32C18.1012 32 20.1817 31.5861 22.1229 30.7821C24.0641 29.978 25.828 28.7994 27.3137 27.3137C28.7994 25.828 29.978 24.0641 30.7821 22.1229C31.5861 20.1817 32 18.1012 32 16C32 13.8989 31.5861 11.8183 30.7821 9.87706C29.978 7.93586 28.7994 6.17203 27.3137 4.68629C25.828 3.20055 24.0641 2.022 22.1229 1.21793C20.1817 0.413852 18.1012 0 16 0ZM24.3333 22.4817C24.3333 23.5 23.5 24.3333 22.4817 24.3333H9.51833C8.5 24.3333 7.66667 23.5 7.66667 22.4817V9.51833C7.66667 8.5 8.5 7.66667 9.51833 7.66667H22.4817C23.5 7.66667 24.3333 8.5 24.3333 9.51833V22.4817Z" fill="white" fill-opacity="0.3"/>
</svg>

<svg width="32" height="32" fill="none" xmlns="http://www.w3.org/2000/svg"><path d="M21 16a5 5 0 11-10 0c0-.285.03-.563.082-.833H9.333v6.661c0 .464.375.839.839.839H21.83a.838.838 0 00.837-.839v-6.661h-1.749c.052.27.082.548.082.833zm-5 3.333a3.334 3.334 0 10-.001-6.667A3.334 3.334 0 0016 19.333zm4-6.833h1.998a.502.502 0 00.502-.5v-1.998a.502.502 0 00-.502-.502H20a.501.501 0 00-.502.502V12c.002.275.227.5.502.5zM16 0a16 16 0 100 32 16 16 0 000-32zm8.333 22.482a1.857 1.857 0 01-1.851 1.851H9.518a1.857 1.857 0 01-1.851-1.851V9.518c0-1.018.833-1.851 1.851-1.851h12.964c1.018 0 1.851.833 1.851 1.851v12.964z" fill="#fff" fill-opacity=".3"/></svg>
